X:1
T:New Forest (Rhynie)
T:New Forest (Rhynie)
T:Alexander Walker
C:Alexander Walker
L:1/8
M:2/2
K:Dmin
V:1 treble 
V:1
 F | D2 dc defg | ac'af egec | D2 dc defg | ac'ge d/d/dd :| e | f>d d/d/d (fd)ad | c'dad ecge | %8
 f>d d/d/d fdad | ecA^c d2 ee | f>d d/d/d (fd)ad | c'dad ecge | fafd egec | AcGE (D2 D) || %14

